static/images/mobile/copyright/wikipedia-wordmark-gn.svg

<?xml version="1.0" encoding="UTF-8"?>
<svg width="120px" height="26px" viewBox="0 0 120 26" version="1.1" xmlns="http://www.w3.org/2000/svg" xmlns:xlink="http://www.w3.org/1999/xlink">
    <title>gn-wordmark</title>
    <g id="Page-1" stroke="none" stroke-width="1" fill="none" fill-rule="evenodd">
        <path d="M24.0231059,4.96654794 C24.2469128,5.15533498 24.2469128,5.81608961 24.0231059,6.00487664 C21.6731329,6.22512819 21.0725852,7.44280496 20.3564025,8.93107571 L12.6462528,24.9779738 C12.4299065,25.4279163 12.1613377,25.7016574 11.751025,25.7016574 C11.3780134,25.7016574 11.1169053,25.4688203 10.8930984,24.9779738 L3.52611972,8.8681467 C2.5339087,6.69709578 2.23922978,6.16219917 0.187666108,6.00487664 C-0.0361408376,5.81608961 -0.0734419953,5.15533498 0.150364951,4.96654794 C1.38130315,4.99801245 2.67565321,5.02947696 4.02968535,5.02947696 C5.37252703,5.02947696 7.05107912,4.99801245 8.54312543,4.96654794 C8.76693238,5.15533498 8.76693238,5.81608961 8.54312543,6.00487664 C6.00664671,6.22512819 5.79029988,6.64989902 6.65568662,8.52203713 L12.590301,21.3280911 L12.7618866,21.3280911 L18.6517392,8.71082417 C19.4499848,6.99915427 19.4350635,6.16219917 16.6747778,6.00487664 C16.4509709,5.81608961 16.4509709,5.15533498 16.6747778,4.96654794 C18.2041253,4.99801245 19.8826774,5.02947696 20.740604,5.02947696 C21.5985306,5.02947696 22.9040711,4.99801245 24.0231059,4.96654794 Z M28.5826024,11.725919 L28.6123868,11.7854879 L28.6123868,12.440745 C28.6123868,12.5300983 28.552818,12.5896671 28.4336803,12.5896671 L27.8082075,12.6503815 C26.8848906,12.7385892 26.557262,12.9780101 26.557262,13.574844 L26.557262,23.493055 C26.557262,24.1483122 26.8551062,24.5355096 27.8082075,24.6248629 L28.4336803,24.6855772 C28.5230335,24.6855772 28.6123868,24.7440005 28.6123868,24.8631382 L28.6123868,25.488611 L28.5826024,25.5493254 C28.5826024,25.5493254 26.5036914,25.4935651 25.5178044,25.4889184 L25.3956697,25.488611 C24.561706,25.488611 22.2385215,25.5493254 22.2385215,25.5493254 L22.1789526,25.488611 L22.1789526,24.8631382 C22.1789526,24.7440005 22.2683059,24.6855772 22.3874436,24.6855772 L22.9831319,24.6248629 C23.9660177,24.5355096 24.2638619,24.0589589 24.2638619,23.493055 L24.2638619,13.574844 C24.2638619,12.9218779 23.9053033,12.7397348 22.9831319,12.6526726 L22.3874436,12.5908127 C22.2683059,12.5908127 22.1789526,12.5633194 22.1789526,12.471675 L22.1789526,11.7854879 L22.2087371,11.725919 C22.2087371,11.725919 24.3697103,11.7806272 25.3624359,11.7851862 L25.485023,11.7854879 C26.2892022,11.7854879 28.5826024,11.725919 28.5826024,11.725919 Z M111.402458,1.67896789 C110.808381,1.67896789 110.276838,1.45721742 109.776562,1.07707374 C109.151217,0.63357279 108.463338,1.77635684e-15 107.525322,1.77635684e-15 C106.180831,1.77635684e-15 105.461684,1.23546694 105.023943,3.10450667 C105.211547,3.29457851 105.524219,3.32625715 105.868158,3.26289987 C106.180831,2.21750477 106.493503,1.74232517 107.306451,1.74232517 C107.837994,1.74232517 108.432071,1.99575429 108.994881,2.34421932 C109.651493,2.78772028 110.308105,3.35793579 110.995984,3.35793579 C112.434276,3.35793579 113.341026,2.12246885 113.716233,0.221750477 C113.528629,0.0950359185 113.215957,1.77635684e-15 112.872018,0.0316786395 C112.434276,1.3621815 112.090337,1.67896789 111.402458,1.67896789 Z M104.228013,24.5326198 L105.146533,24.5971842 C105.273226,24.5971842 105.399918,24.6922035 105.399918,24.8493508 L105.399918,25.4511398 L105.336572,25.5157042 C105.336572,25.5157042 101.884204,25.4511398 101.124049,25.4511398 C100.29933,25.4511398 98.2722519,25.5157042 98.2722519,25.5157042 L98.2076875,25.4511398 L98.2076875,24.8493508 C98.2076875,24.6922035 98.3027068,24.5971842 98.4622905,24.5971842 C99.8571252,24.5021649 100.646516,24.2475619 101.533363,22.2204834 L108.563574,5.74925199 C108.91076,4.92575133 109.165363,4.60780211 109.642896,4.60780211 C110.083883,4.60780211 110.243466,4.92575133 110.495633,5.55921337 L116.988619,22.7260348 C117.433261,23.962504 118.067941,24.4363823 119.334865,24.5630747 L119.682051,24.5935296 C119.841634,24.5935296 120,24.6873307 120,24.8481326 L120,25.4474852 L119.904981,25.5120496 C119.904981,25.5120496 117.466152,25.4474852 116.229683,25.4474852 C115.121124,25.4474852 112.015942,25.5120496 112.015942,25.5120496 L111.986705,25.4474852 L111.986705,24.8481326 C111.986705,24.6873307 112.050051,24.5935296 112.212071,24.5935296 L113.098918,24.5289652 C114.301278,24.4351641 114.747138,24.0526505 114.429189,23.16824 L112.497129,17.8130494 L105.906688,17.8130494 C105.146533,17.8130494 104.956495,17.9397418 104.799347,18.3490557 L102.961089,22.9428737 C102.644358,23.7395741 103.056108,24.4376005 104.228013,24.5326198 Z M111.987923,16.4852155 L108.915632,8.02971535 L108.852286,8.02971535 L105.684976,16.0746833 C105.558284,16.3938507 105.778777,16.4864336 106.475585,16.4864336 L111.987923,16.4864336 L111.987923,16.4852155 Z M35.3471018,23.493055 C35.3471018,24.1483122 35.7342992,24.4759408 36.5980473,24.6248629 L36.9256759,24.6855772 C37.0150292,24.7142161 37.1043824,24.7440005 37.1043824,24.8631382 L37.1043824,25.488611 L37.074598,25.5493254 C37.074598,25.5493254 35.1981797,25.488611 34.3046472,25.488611 C33.4706835,25.488611 31.0283613,25.5493254 31.0283613,25.5493254 L30.9687924,25.488611 L30.9687924,24.8631382 C30.9687924,24.7440005 31.0581457,24.6855772 31.1772834,24.6855772 L31.7729717,24.6248629 C32.6665042,24.5355096 33.0537017,24.0589589 33.0537017,23.493055 L33.0537017,13.574844 C33.0537017,12.9218779 32.7260731,12.7397348 31.7729717,12.6526726 L31.1772834,12.5908127 C31.0581457,12.5908127 30.9687924,12.5633194 30.9687924,12.471675 L30.9687924,11.7854879 L30.9985769,11.725919 C30.9985769,11.725919 33.4408991,11.7854879 34.364216,11.7854879 C35.1993253,11.7854879 37.074598,11.725919 37.074598,11.725919 L37.1043824,11.7854879 L37.1043824,12.440745 C37.1043824,12.5300983 37.0448136,12.5598827 36.9256759,12.5896671 L36.5980473,12.6503815 C35.6747304,12.8279425 35.3471018,12.9780101 35.3471018,13.574844 L35.3471018,18.0734366 C36.3299876,18.0734366 36.8958915,17.5693926 38.2064059,16.1672339 C39.3977826,14.8544284 40.3210995,13.7569872 40.3210995,13.1876466 C40.3210995,12.9482257 40.0530397,12.682457 39.4573514,12.5908127 C39.3382137,12.5633194 39.2786449,12.5312438 39.2786449,12.4418906 L39.2786449,11.7545579 L39.3084293,11.7270646 C39.3084293,11.7270646 41.7209671,11.7866334 42.5847152,11.7866334 C43.3591101,11.7866334 44.6696244,11.7270646 44.6696244,11.7270646 L44.7589777,11.7545579 L44.7589777,12.4418906 C44.7589777,12.5312438 44.6696244,12.5908127 44.5207023,12.5908127 C43.3591101,12.6801659 42.5549308,12.7397348 41.4826918,13.9608959 L38.9212319,16.9072621 C38.4148968,17.4456727 38.2361903,17.7710102 38.2361903,18.0104311 C38.2361903,18.1891376 38.3553279,18.3369141 38.50425,18.5156206 L43.0016971,23.9363846 C43.3591101,24.3522209 44.0739361,24.5320729 44.6696244,24.6500651 L44.8185465,24.6787039 C44.9078998,24.7073428 45.0270374,24.7669116 45.0270374,24.8562649 L45.0270374,25.4817376 L44.9376842,25.5115221 C44.9376842,25.5115221 43.3591101,25.4817376 42.5251464,25.4817376 C41.7805359,25.4817376 40.7082969,25.5115221 40.7082969,25.5115221 L40.6785125,25.4817376 L40.6785125,25.1243246 C40.6785125,24.7359816 40.6487281,24.4106442 40.2317462,23.9340935 L36.9256759,19.8226983 C36.4789097,19.2258644 36.002359,19.0792335 35.3471018,19.0792335 L35.3471018,23.493055 L35.3471018,23.493055 Z M51.4043394,23.493055 C51.4043394,24.1483122 51.7021836,24.5355096 52.655285,24.6248629 L53.2807577,24.6855772 C53.370111,24.6855772 53.4594642,24.7440005 53.4594642,24.8631382 L53.4594642,25.488611 L53.4296798,25.5493254 C53.4296798,25.5493254 51.1660641,25.488611 50.2427471,25.488611 C49.4087835,25.488611 47.0855989,25.5493254 47.0855989,25.5493254 L47.0260301,25.488611 L47.0260301,24.8631382 C47.0260301,24.7440005 47.1153833,24.6855772 47.234521,24.6855772 L47.8302093,24.6248629 C48.8130951,24.5355096 49.1109393,24.0589589 49.1109393,23.493055 L49.1109393,13.574844 C49.1109393,12.9218779 48.7535263,12.7397348 47.8302093,12.6526726 L47.234521,12.5908127 C47.1153833,12.5908127 47.0260301,12.5633194 47.0260301,12.471675 L47.0260301,11.7854879 L47.0558145,11.725919 C47.0558145,11.725919 49.4087835,11.7854879 50.3321004,11.7854879 C51.1362797,11.7854879 53.4296798,11.725919 53.4296798,11.725919 L53.4594642,11.7854879 L53.4594642,12.440745 C53.4594642,12.5300983 53.3998954,12.5896671 53.2807577,12.5896671 L52.655285,12.6503815 C51.731968,12.7385892 51.4043394,12.9780101 51.4043394,13.574844 L51.4043394,23.493055 Z M72.2305205,25.488611 C71.336988,25.488611 69.2830087,25.5493254 69.2830087,25.5493254 L69.2520788,25.488611 L69.2520788,24.8333538 C69.2520788,24.7749305 69.2830087,24.6855772 69.4307853,24.6855772 L70.118118,24.6248629 C71.0425805,24.5355096 71.3106402,23.9398213 71.3106402,23.3452785 L71.3106402,13.5164207 C71.3106402,12.829088 70.9532272,12.7110959 70.118118,12.6526726 L69.4307853,12.5908127 C69.2520788,12.5633194 69.2520788,12.502605 69.2520788,12.471675 L69.2520788,11.7854879 L69.2830087,11.725919 C69.2830087,11.725919 71.6050477,11.7854879 72.4985803,11.7854879 L76.8768896,11.7854879 C77.7704221,11.7854879 79.8862613,11.725919 79.8862613,11.725919 L79.9481213,11.7854879 C79.9756146,13.0662178 80.1841055,14.2301012 80.3948875,15.3607635 L79.6525682,15.4799012 C79.3260852,14.3767322 78.7601812,12.7993036 76.8539785,12.7993036 L74.4712251,12.7993036 C73.9053212,12.7993036 73.607477,13.0077945 73.607477,13.5129841 L73.607477,17.8328701 L75.8401628,17.8328701 C76.675272,17.8328701 76.8826174,17.4754571 77.0029006,16.8797688 L77.1804616,16.254296 C77.1804616,16.1649428 77.2411759,16.1042284 77.3591681,16.1042284 L77.8632121,16.1042284 C77.925072,16.1042284 77.925072,16.1351583 77.925072,16.1935816 C77.8632121,16.8476933 77.7463655,17.6839481 77.7463655,18.3987741 C77.7463655,19.1422389 77.8655032,19.7688573 77.925072,20.4538989 L77.8632121,20.5146133 L77.3591681,20.5146133 C77.2113915,20.5146133 77.148386,20.4538989 77.148386,20.3645456 L76.9994639,19.710434 C76.8803263,19.1136001 76.6122665,18.7859715 75.834435,18.7859715 L73.6028948,18.7859715 L73.6028948,23.3441329 C73.6028948,23.9077457 73.9270867,24.4736497 74.4666429,24.4736497 L77.2961626,24.4736497 C78.8151679,24.4736497 79.6514226,23.5205483 80.0065445,21.9694675 L80.7488639,22.0588207 L80.15203,25.4828832 L80.0924611,25.542452 C80.0924611,25.542452 78.3351805,25.4828832 77.441648,25.4828832 L72.2305205,25.488611 L72.2305205,25.488611 L72.2305205,25.488611 Z M91.2959843,22.5321523 L91.2959843,13.7312503 C91.2959843,12.2567536 91.5263744,11.3812712 92.3557788,11.3812712 L92.862637,11.3812712 C94.5905628,11.3812712 95.6733963,11.9802855 96.0650595,13.7542893 C96.3184886,13.7542893 96.6410347,13.7312503 96.8483858,13.6390942 C96.6871128,12.5792998 96.5719177,11.4043102 96.5488787,10.3675547 C96.5488787,10.3445157 96.5028007,10.2984377 96.4797617,10.2984377 C95.6964353,10.3675547 93.1391051,10.4827498 91.3190233,10.4827498 L89.3376684,10.4827498 C87.5636646,10.4827498 84.8450613,10.3675547 83.9695789,10.2984377 C83.9235009,10.2984377 83.8774229,10.3445157 83.8774229,10.3675547 C83.7852669,11.4043102 83.5548767,12.6023388 83.3014476,13.7082113 C83.5318377,13.8003673 83.8083059,13.8234063 84.084774,13.8234063 C84.5455542,11.9802855 85.6053487,11.3812712 87.1259234,11.3812712 L88.2548349,11.3812712 C89.1072783,11.3812712 89.3376684,12.2567536 89.3376684,13.6621333 L89.3376684,22.5321523 C89.3376684,24.4443902 88.9460052,24.5595852 87.1028844,24.6287023 C86.9646503,24.7669363 86.9646503,25.2507556 87.1028844,25.3889896 C88.2317959,25.3659506 89.4044814,25.3429116 90.3283458,25.3429116 C91.2130437,25.3429116 92.3788178,25.3659506 93.5307683,25.3889896 C93.6690024,25.2507556 93.6690024,24.7669363 93.5307683,24.6287023 C91.6876475,24.5595852 91.2959843,24.4443902 91.2959843,22.5321523 Z M57.6498825,13.4263401 C57.6498825,12.502717 57.2545538,12.4729227 55.8252883,12.3835398 C55.6428289,12.3835398 55.612419,12.2953028 55.612419,12.2345683 L55.612419,11.5492996 L55.6732388,11.5195053 C56.1293874,11.5195053 57.9235717,11.5790939 58.8054588,11.5790939 C59.6569361,11.5790939 60.8733323,11.5195053 61.9984987,11.5195053 C66.3143657,11.5195053 67.1050232,13.6039599 67.1050232,15.155555 C67.1050232,16.9443586 66.223136,19.7438763 61.907269,19.7438763 C61.1470214,19.7438763 60.5388233,19.6831417 59.9902755,19.4459333 L59.9902755,23.4360768 C59.9902755,24.0904053 60.3551943,24.2416687 61.3294808,24.3894942 L61.9388485,24.4788771 C62.0604881,24.5075254 62.1528874,24.5396116 62.1528874,24.6564969 L62.1528874,25.2821771 L62.1248168,25.3429116 C62.1248168,25.3429116 59.6908549,25.2821771 58.7481479,25.2821771 C57.8966706,25.2821771 55.6159278,25.3429116 55.6159278,25.3429116 L55.5855179,25.2821771 L55.5855179,24.6564969 C55.5855179,24.5373197 55.6463377,24.5075254 55.7679774,24.4788771 L56.4065853,24.3894942 C57.3492923,24.270317 57.6533914,24.0021684 57.6533914,23.4360768 L57.6498825,13.4263401 L57.6498825,13.4263401 L57.6498825,13.4263401 Z M59.9914451,18.6116931 C60.5996431,18.8511934 61.3598907,18.8798417 61.9680888,18.8798417 C63.7938526,18.8798417 64.672231,17.8049553 64.672231,15.5130866 C64.672231,12.9507773 63.4862447,12.3846857 61.8160393,12.3846857 C60.3551943,12.3846857 59.9902755,12.6528344 59.9902755,13.427486 L59.9914451,18.6116931 L59.9914451,18.6116931 Z" id="gn-wordmark" fill="#000000" fill-rule="nonzero"></path>
    </g>
</svg>

<svg xmlns="http://www.w3.org/2000/svg" width="120" height="26"><path fill="#000" fill-rule="nonzero" d="M24.023 4.967c.224.188.224.85 0 1.038-2.35.22-2.95 1.438-3.667 2.926l-7.71 16.047c-.216.45-.485.724-.895.724-.373 0-.634-.233-.858-.724L3.526 8.868C2.534 6.698 2.24 6.162.188 6.005c-.224-.189-.261-.85-.038-1.038 1.231.031 2.526.062 3.88.062 1.343 0 3.021-.031 4.513-.062.224.188.224.85 0 1.038-2.536.22-2.753.645-1.887 2.517l5.934 12.806h.172l5.89-12.617c.798-1.712.783-2.549-1.977-2.706-.224-.189-.224-.85 0-1.038 1.53.031 3.208.062 4.066.062.858 0 2.163-.031 3.282-.062Zm4.56 6.759.03.06v.655c0 .09-.06.149-.18.149l-.625.06c-.923.089-1.25.328-1.25.925v9.918c0 .655.297 1.043 1.25 1.132l.626.06c.089 0 .178.059.178.178v.626l-.03.06s-2.078-.055-3.064-.06h-.122c-.834 0-3.157.06-3.157.06l-.06-.06v-.626c0-.119.09-.177.208-.177l.596-.061c.983-.09 1.28-.566 1.28-1.132v-9.918c0-.653-.358-.835-1.28-.922l-.596-.062c-.119 0-.208-.028-.208-.12v-.686l.03-.06s2.16.056 3.153.06h.123c.804 0 3.098-.06 3.098-.06Zm82.82-10.047c-.595 0-1.126-.222-1.626-.602C109.15.634 108.463 0 107.525 0c-1.344 0-2.063 1.235-2.501 3.105.188.19.5.221.844.158.313-1.045.626-1.52 1.438-1.52.532 0 1.126.253 1.689.601.656.444 1.313 1.014 2.001 1.014 1.438 0 2.345-1.236 2.72-3.136a1.344 1.344 0 0 0-.844-.19c-.438 1.33-.782 1.647-1.47 1.647Zm-7.175 22.854.919.064a.25.25 0 0 1 .253.252v.602l-.063.065s-3.453-.065-4.213-.065c-.825 0-2.852.065-2.852.065l-.064-.065v-.602c0-.157.095-.252.254-.252 1.395-.095 2.185-.35 3.071-2.377l7.03-16.47c.348-.824.602-1.142 1.08-1.142.44 0 .6.318.853.951l6.493 17.167c.444 1.237 1.079 1.71 2.346 1.837l.347.03c.16 0 .318.094.318.255v.6l-.095.064s-2.439-.065-3.675-.065c-1.109 0-4.214.065-4.214.065l-.03-.065v-.599c0-.16.064-.254.226-.254l.887-.065c1.202-.094 1.648-.476 1.33-1.36l-1.932-5.356h-6.59c-.76 0-.95.127-1.108.536l-1.838 4.594c-.317.797.095 1.495 1.267 1.59Zm7.76-8.048-3.072-8.455h-.064l-3.167 8.045c-.127.319.094.411.79.411h5.513Zm-76.64 7.008c0 .655.386.983 1.25 1.132l.328.06c.089.03.178.059.178.178v.626l-.03.06s-1.876-.06-2.77-.06c-.833 0-3.276.06-3.276.06l-.06-.06v-.626c0-.119.09-.177.21-.177l.595-.061c.894-.09 1.28-.566 1.28-1.132v-9.918c0-.653-.327-.835-1.28-.922l-.596-.062c-.119 0-.208-.028-.208-.12v-.686l.03-.06s2.442.06 3.365.06c.835 0 2.71-.06 2.71-.06l.03.06v.656c0 .09-.06.119-.178.149l-.328.06c-.923.178-1.25.328-1.25.925v4.498c.982 0 1.548-.504 2.858-1.906 1.192-1.313 2.115-2.41 2.115-2.98 0-.239-.268-.505-.864-.596-.119-.028-.178-.06-.178-.15v-.686l.03-.028s2.412.06 3.276.06c.774 0 2.085-.06 2.085-.06l.089.028v.687c0 .09-.09.149-.238.149-1.162.09-1.966.149-3.038 1.37l-2.562 2.946c-.506.539-.685.864-.685 1.103 0 .18.12.327.268.506l4.498 5.42c.357.416 1.072.596 1.668.714l.149.029c.089.028.208.088.208.177v.626l-.09.03s-1.578-.03-2.412-.03c-.744 0-1.817.03-1.817.03l-.03-.03v-.358c0-.388-.03-.713-.446-1.19l-3.306-4.111c-.447-.597-.924-.744-1.579-.744v4.414Zm16.056 0c0 .655.298 1.043 1.251 1.132l.626.06c.09 0 .178.059.178.178v.626l-.03.06s-2.263-.06-3.186-.06c-.834 0-3.157.06-3.157.06l-.06-.06v-.626c0-.119.09-.177.209-.177l.595-.061c.983-.09 1.28-.566 1.28-1.132v-9.918c0-.653-.356-.835-1.28-.922l-.595-.062c-.12 0-.209-.028-.209-.12v-.686l.03-.06s2.353.06 3.276.06c.804 0 3.098-.06 3.098-.06l.03.06v.656c0 .09-.06.149-.18.149l-.625.06c-.923.089-1.25.328-1.25.925v9.918Zm20.827 1.996c-.894 0-2.948.06-2.948.06l-.03-.06v-.656c0-.058.03-.147.178-.147l.687-.061c.925-.09 1.193-.685 1.193-1.28v-9.829c0-.687-.358-.805-1.193-.863l-.687-.062c-.179-.028-.179-.088-.179-.12v-.686l.031-.06s2.322.06 3.216.06h4.378c.893 0 3.01-.06 3.01-.06l.061.06c.028 1.281.236 2.445.447 3.576l-.742.119c-.327-1.103-.893-2.68-2.799-2.68h-2.383c-.566 0-.864.208-.864.713v4.32h2.233c.835 0 1.043-.358 1.163-.953l.177-.626c0-.09.061-.15.18-.15h.503c.062 0 .062.031.062.09-.062.654-.179 1.49-.179 2.205 0 .743.12 1.37.18 2.055l-.063.06h-.504c-.148 0-.21-.06-.21-.15l-.15-.654c-.119-.596-.387-.924-1.165-.924h-2.231v4.558c0 .564.324 1.13.864 1.13h2.83c1.518 0 2.354-.953 2.71-2.505l.742.09-.597 3.424-.06.06s-1.757-.06-2.65-.06l-5.211.006Zm19.065-2.957v-8.8c0-1.475.23-2.35 1.06-2.35h.507c1.728 0 2.81.598 3.202 2.372.253 0 .576-.023.783-.115a26.563 26.563 0 0 1-.3-3.271c0-.023-.045-.07-.068-.07-.784.07-3.34.185-5.161.185h-1.981c-1.774 0-4.493-.115-5.368-.185-.046 0-.093.047-.093.07-.092 1.036-.322 2.234-.576 3.34.23.092.507.115.784.115.46-1.843 1.52-2.442 3.04-2.442h1.13c.852 0 1.083.876 1.083 2.281v8.87c0 1.912-.392 2.028-2.235 2.097-.138.138-.138.622 0 .76a172.11 172.11 0 0 1 3.225-.046c.885 0 2.05.023 3.203.046.138-.138.138-.622 0-.76-1.843-.07-2.235-.185-2.235-2.097ZM57.65 13.426c0-.923-.395-.953-1.825-1.042-.182 0-.213-.089-.213-.15v-.685l.061-.03c.456 0 2.25.06 3.132.06.852 0 2.068-.06 3.193-.06 4.316 0 5.107 2.085 5.107 3.637 0 1.788-.882 4.588-5.198 4.588-.76 0-1.368-.06-1.917-.298v3.99c0 .654.365.806 1.34.953l.609.09c.121.029.214.06.214.177v.626l-.028.06s-2.434-.06-3.377-.06c-.851 0-3.132.06-3.132.06l-.03-.06v-.626c0-.119.06-.148.182-.177l.639-.09c.942-.119 1.246-.387 1.246-.953l-.003-10.01Zm2.341 5.186c.609.24 1.369.268 1.977.268 1.826 0 2.704-1.075 2.704-3.367 0-2.562-1.186-3.128-2.856-3.128-1.46 0-1.826.268-1.826 1.042l.001 5.185Z"/></svg>
